X: 25901
T: Matthew's
R: reel
M: 4/4
K: Gmajor
|:BGBd cAFA|G3A BGdG|cedB A4|
BGBd ^cA^ce|d3e fdAf|e^cA^c d4:|
|:BGFG BGcG|BGFG BGcG|AGFG dFDF|AGFG dFDF|
BGFG BGcG|BGFG BGcG|AGFG dDFA|AGGF G4:|
|:GggG fGeG|GddG BGFG|AaaA gAfA|AeAe dcAF|
GggG fGeG|GddG BGFG|ABcd ecAF|AGGF G4:|
|:B,GAG B,GAG|CGAG CGAG|A,DEF EDA,C|B,G2F EDB,A,|
B,GAG B,GAG|CGAG CGAG|A,DEF EDA,C|B,G2F G4:|

